X:67
T: SCHWESTERLEIN WANN GEHN WIR NACH HAUS
N: Z0068
O: Europa, Mitteleuropa, Deutschland, Niederrhein
R: Sagen - Lied, Romanze, Tod
M: 3/4
L: 1/16
K: A
 | E3A=c8 | E3A=c4
E2A2 | =c2B2A4G4 | A8z4 |
=G2G2=c4e2e2 | e2d2=c2B2c4 |
=G4c4e4 | e2d2=c2B2c4 |
c3cA8 | G3GB8 |
=c2B2A4G4 | A12

@@@ Tune index: 9825
